contributed-vectors/jager.svg

<svg xmlns="http://www.w3.org/2000/svg" xml:space="preserve" viewBox="0 0 192 192"><font horiz-adv-x="2048"><font-face font-family="Roboto-Black" underline-position="-150" underline-thickness="100" units-per-em="2048"/><glyph d="M692 1456h338V467c0-149-46-267-137-355C802 23 685-21 542-21 378-21 248 18 153 97 57 176 11 290 14 440l3 6h330c0-71 18-124 54-157s83-50 141-50c44 0 80 20 108 61 28 40 42 96 42 167z" horiz-adv-x="1144" unicode="J"/><glyph d="M721 1c-13 23-23 48-32 77s-16 59-21 90c-29-57-65-103-108-137-43-35-100-52-169-52-113 0-201 29-264 88-63 58-95 137-95 238 0 107 40 190 121 249 81 58 203 87 367 87h139v77c0 46-11 81-33 106s-56 37-101 37c-39 0-68-9-87-27-19-19-29-47-29-86l-328 1-2 6c-5 99 37 181 124 248 87 66 201 99 344 99 134 0 243-33 326-100s124-162 124-286V308c0-57 5-111 15-160 9-49 24-99 43-148M483 220c41 0 78 10 110 29 31 19 53 42 66 69v143H523c-54 0-93-13-117-39s-36-59-36-99c0-31 11-55 32-74s48-29 81-29z" horiz-adv-x="1086" unicode="a"/><glyph d="M576-21c-164 0-292 50-385 149S51 353 51 505v38c0 165 44 300 132 404 87 104 214 156 380 155 146 0 259-44 340-131 80-87 120-207 120-359V435H403l-2-6c5-57 26-102 63-137s89-53 158-53c65 0 119 5 162 16s92 28 147 51l81-206c-47-34-109-63-188-86S663-21 576-21m-13 863c-54 0-94-17-119-51-26-35-41-81-45-140l2-5h292v26c0 56-10 98-29 127-20 29-54 43-101 43z" horiz-adv-x="1070" unicode="e"/><glyph d="M50 539c0 169 37 305 111 408 73 103 177 155 311 155 57 0 107-13 150-40s81-66 112-115l22 135h298V12c0-143-49-253-146-331-98-79-233-118-404-118-56 0-115 8-176 23s-120 36-176 62l58 250c49-21 95-37 140-47 44-11 95-16 152-16 72 0 126 14 161 43s52 74 52 136v84c-31-39-66-69-106-89-41-20-87-30-139-30-133 0-237 49-310 148S50 356 50 518m337 0c0-88 13-156 39-205 25-49 69-74 130-74 37 0 68 6 95 17 26 11 47 28 64 51v455c-17 26-38 46-64 60-26 13-57 20-93 20-60 0-103-28-130-83-27-56-41-129-41-220z" horiz-adv-x="1151" unicode="g"/><glyph d="m694 794-110 1c-39 0-70-7-95-21-25-15-43-35-55-61V0H96v1082h318l12-159c23 57 53 101 90 132s81 47 131 47c15 0 29-1 41-3s25-5 38-9z" horiz-adv-x="722" unicode="r"/></font><path fill="#FFBB78" d="M192 172c0 11-9 20-20 20H20c-11 0-20-9-20-20V20C0 9 9 0 20 0h152c11 0 20 9 20 20v152z"/><text fill="#FFF" font-family="'Roboto-Black'" font-size="63.132" transform="translate(16.498 117.24)">Jager</text></svg>

<?xml version="1.0" encoding="utf-8"?>
<!-- Generator: Adobe Illustrator 17.1.0, SVG Export Plug-In . SVG Version: 6.00 Build 0)  -->
<!DOCTYPE svg PUBLIC "-//W3C//DTD SVG 1.1//EN" "http://www.w3.org/Graphics/SVG/1.1/DTD/svg11.dtd">
<svg version="1.1" id="Слой_1" xmlns="http://www.w3.org/2000/svg" xmlns:xlink="http://www.w3.org/1999/xlink" x="0px" y="0px"
	 viewBox="0 0 192 192" enable-background="new 0 0 192 192" xml:space="preserve">
<font horiz-adv-x="2048">
<!-- Roboto is a trademark of Google. -->
<!-- Copyright: Copyright 2018 Adobe System Incorporated. All rights reserved. -->
<font-face font-family="Roboto-Black" units-per-em="2048" underline-position="-150" underline-thickness="100"/>
<missing-glyph horiz-adv-x="510"/>
<glyph unicode="J" horiz-adv-x="1144" d="M692,1456l338,0l0,-989C1030,318 984,200 893,112C802,23 685,-21 542,-21C378,-21 248,18 153,97C57,176 11,290 14,440l3,6l330,0C347,375 365,322 401,289C437,256 484,239 542,239C586,239 622,259 650,300C678,340 692,396 692,467z"/>
<glyph unicode="a" horiz-adv-x="1086" d="M721,1C708,24 698,49 689,78C680,107 673,137 668,168C639,111 603,65 560,31C517,-4 460,-21 391,-21C278,-21 190,8 127,67C64,125 32,204 32,305C32,412 72,495 153,554C234,612 356,641 520,641l139,0l0,77C659,764 648,799 626,824C604,849 570,861 525,861C486,861 457,852 438,834C419,815 409,787 409,748l-328,1l-2,6C74,854 116,936 203,1003C290,1069 404,1102 547,1102C681,1102 790,1069 873,1002C956,935 997,840 997,716l0,-408C997,251 1002,197 1012,148C1021,99 1036,49 1055,0M483,220C524,220 561,230 593,249C624,268 646,291 659,318l0,143l-136,0C469,461 430,448 406,422C382,396 370,363 370,323C370,292 381,268 402,249C423,230 450,220 483,220z"/>
<glyph unicode="e" horiz-adv-x="1070" d="M576,-21C412,-21 284,29 191,128C98,227 51,353 51,505l0,38C51,708 95,843 183,947C270,1051 397,1103 563,1102C709,1102 822,1058 903,971C983,884 1023,764 1023,612l0,-177l-620,0l-2,-6C406,372 427,327 464,292C501,257 553,239 622,239C687,239 741,244 784,255C827,266 876,283 931,306l81,-206C965,66 903,37 824,14C745,-9 663,-21 576,-21M563,842C509,842 469,825 444,791C418,756 403,710 399,651l2,-5l292,0l0,26C693,728 683,770 664,799C644,828 610,842 563,842z"/>
<glyph unicode="g" horiz-adv-x="1151" d="M50,539C50,708 87,844 161,947C234,1050 338,1102 472,1102C529,1102 579,1089 622,1062C665,1035 703,996 734,947l22,135l298,0l0,-1070C1054,-131 1005,-241 908,-319C810,-398 675,-437 504,-437C448,-437 389,-429 328,-414C267,-399 208,-378 152,-352l58,250C259,-123 305,-139 350,-149C394,-160 445,-165 502,-165C574,-165 628,-151 663,-122C698,-93 715,-48 715,14l0,84C684,59 649,29 609,9C568,-11 522,-21 470,-21C337,-21 233,28 160,127C87,226 50,356 50,518M387,518C387,430 400,362 426,313C451,264 495,239 556,239C593,239 624,245 651,256C677,267 698,284 715,307l0,455C698,788 677,808 651,822C625,835 594,842 558,842C498,842 455,814 428,759C401,703 387,630 387,539z"/>
<glyph unicode="r" horiz-adv-x="722" d="M694,794l-110,1C545,795 514,788 489,774C464,759 446,739 434,713l0,-713l-338,0l0,1082l318,0l12,-159C449,980 479,1024 516,1055C553,1086 597,1102 647,1102C662,1102 676,1101 688,1099C700,1097 713,1094 726,1090z"/>
</font>

	<path fill="#FFBB78" d="M192,172c0,11-9,20-20,20H20c-11,0-20-9-20-20V20C0,9,9,0,20,0h152c11,0,20,9,20,20V172z"/>
<text transform="matrix(1 0 0 1 16.4985 117.2393)" fill="#FFFFFF" font-family="'Roboto-Black'" font-size="63.132">Jager</text>
</svg>
